X:6294
T:STMPIE1- Jockey has gotten a wife (mistitled)
O:england
S:Female Parson, 1730 (Tune is "Butter'd Peas")
Q:1/4=120
L:1/4
M:C|
K:F
Bc2B/A/|Bd3|Bc2B/A/|BG3|Bc2B/A/|Bd2c/B/|A/B/c/A/ G/A/B/G/|\
AF3|AB2d/e/|f/d/c/B/f2|Bc2B/A/|BA3|Ac2d/e/|f/e/c/A/f2|\
A/B/c/A/ B/c/B/B/|AF3|]


